src/asset/16px/overview.svg

<svg width="16" height="16" viewBox="0 0 16 16" fill="none" xmlns="http://www.w3.org/2000/svg">
<path fill-rule="evenodd" clip-rule="evenodd" d="M1 2C1 1.44772 1.44772 1 2 1H6C6.55228 1 7 1.44772 7 2V7C7 7.55228 6.55228 8 6 8H2C1.44772 8 1 7.55228 1 7V2ZM3 3V6H5V3H3ZM9 2C9 1.44772 9.44772 1 10 1H14C14.5523 1 15 1.44772 15 2V5C15 5.55228 14.5523 6 14 6H10C9.44772 6 9 5.55228 9 5V2ZM11 3V4H13V3H11ZM9 9C9 8.44772 9.44772 8 10 8H14C14.5523 8 15 8.44772 15 9V14C15 14.5523 14.5523 15 14 15H10C9.44772 15 9 14.5523 9 14V9ZM11 10V13H13V10H11ZM1 11C1 10.4477 1.44772 10 2 10H6C6.55228 10 7 10.4477 7 11V14C7 14.5523 6.55228 15 6 15H2C1.44772 15 1 14.5523 1 14V11ZM3 12V13H5V12H3Z" fill="#808080"/>
</svg>

<svg width="16" height="16" fill="none" xmlns="http://www.w3.org/2000/svg"><path fill-rule="evenodd" clip-rule="evenodd" d="M1 2a1 1 0 011-1h4a1 1 0 011 1v5a1 1 0 01-1 1H2a1 1 0 01-1-1V2zm2 1v3h2V3H3zm6-1a1 1 0 011-1h4a1 1 0 011 1v3a1 1 0 01-1 1h-4a1 1 0 01-1-1V2zm2 1v1h2V3h-2zM9 9a1 1 0 011-1h4a1 1 0 011 1v5a1 1 0 01-1 1h-4a1 1 0 01-1-1V9zm2 1v3h2v-3h-2zM1 11a1 1 0 011-1h4a1 1 0 011 1v3a1 1 0 01-1 1H2a1 1 0 01-1-1v-3zm2 1v1h2v-1H3z" fill="gray"/></svg>
